!! 00000] TT[WS
!!!OTL: Kan yangge
!!!ARE: Asia, China, Shanxi Taigu
!! Ethnic Group: Han
!! WI, 242 (2)
!!!SCT: J0289
!!!YEM: Copyright 1995, estate of Helmut Schaffrath.
**kern
*ICvox
*Ivox
!! Mixed meters:  2/4; 4/4
*M4/4
*k[b-e-]
*B-:
{8r
8gg
8dd
16dd
16dd
8gg
16gg
16ddd
8bb-
16aa
16gg
=1
*M2/4
8dd
8ddd
16bb-
16aa
16gg
16aa
=2
16ff
16gg
4dd}
{8ddd
=3
16bb-
16aa
16gg
16aa
16gg
16aa
16gg
16dd
=4
8ff
16gg
16aa
8gg
16ff
16dd
=5
8cc
16b-
16a
4g}
=6
{8gg
16gg
16ddd
16bb-
16aa
16gg
16dd
=7
8gg
16gg
16ddd
16bb-
16aa
8gg
=8
8ddd
16bb-
16aa
16gg
16aa
16gg
16ff
=9
16dd
16ff
16dd
16cc
16b-
16g
8b-
=10
8cc}
{8dd
8gg
16gg
16ddd
=11
16bb-
16aa
16gg
16cc
16dd
16ee-
8dd
=12
16gg
16gg
16gg
16ddd
16bb-
16aa
16ccc
16gg
=13
16dd
16ff
16cc
16a
4g
=14
8r}
{8ddd
8bb-
16bb-
16bb-
=15
16gg
16aa
16gg
16cc
16dd
16ee-
8dd
=16
16gg
16gg
16gg
16ddd
16bb-
16aa
16ccc
16gg
=17
16dd
16ff
16cc
16a
[4g
=18
4g]
4r}
==
!!!AGN: Xiaodiao. Qingge, Sichun
!!!ONB: ESAC (Essen Associative Code) Database: CHINA
!!!AMT: irregular
!!!AIN: vox
!!!EED: Helmut Schaffrath
!!!EEV: 1.0
*-
!!!ONB: Tied note syntax fixed by Craig Sapp, 2004/05/03/
